X: 33399
T: Quiet Glen, The
R: jig
M: 6/8
K: Aminor
|:cec dcd|ecA GEG|~c3 ~d3|eag a2b|
c'bg aed|ecA GED|C2d edc|BAG A3:|
|:cBA GBG|~A3 ~B3|cBA BGE|DB,D E2B|
cBA GBG|AGE ~B2A|Ged BAG|EAA A3:|
|:FGA FGG|EAB dBG|AGA ~c3|~d3 ~e3|
{B}c2e dBG|{g}a3 bge|dBA GED|EAG A3:|

